icons/.local/share/icons/Tela/scalable/places/grey-cut.svg

<svg width="64" height="64" version="1.1" viewBox="0 0 16.933 16.933" xmlns="http://www.w3.org/2000/svg" xmlns:xlink="http://www.w3.org/1999/xlink">
 <defs>
  <linearGradient id="a">
   <stop offset="0"/>
   <stop stop-opacity="0" offset="1"/>
  </linearGradient>
  <linearGradient id="c" x1="-197.1" x2="-196.91" y1="217.68" y2="219.36" gradientTransform="matrix(1.6035 -1.6035 1.6035 1.6035 3.8025 -613.72)" gradientUnits="userSpaceOnUse" xlink:href="#a"/>
  <linearGradient id="d" x1="-197.1" x2="-196.91" y1="217.68" y2="219.36" gradientTransform="matrix(1.6035 -1.6035 1.6035 1.6035 22.8 -628.73)" gradientUnits="userSpaceOnUse" xlink:href="#a"/>
 </defs>
 <path d="m3.07 7.09c-0.177 0-0.237 0.162-0.318 0.318h-0.477a0.317 0.317 0 0 0-0.317 0.317v3.175c0 0.176 0.142 0.318 0.317 0.318h7.62a0.317 0.317 0 0 0 0.318-0.318v-3.175a0.317 0.317 0 0 0-0.318-0.317h-4.285c-0.093-0.15-0.141-0.318-0.317-0.318z" fill="#bdbdbd" style="paint-order:markers stroke fill"/>
 <path d="m3.07 7.09c-0.177 0-0.237 0.162-0.318 0.318h-0.477a0.317 0.317 0 0 0-0.317 0.317v3.175c0 0.176 0.142 0.318 0.317 0.318h7.62a0.317 0.317 0 0 0 0.318-0.318v-3.175a0.317 0.317 0 0 0-0.318-0.317h-4.285c-0.093-0.15-0.141-0.318-0.317-0.318z" fill="#000000" opacity=".18" style="paint-order:markers stroke fill"/>
 <rect x="2.434" y="7.884" width="7.303" height="3.016" ry=".159" fill="#f2f2f2" style="paint-order:markers stroke fill"/>
 <path transform="scale(.26458)" d="m22.998 31c-0.66143 0-0.86088 0.62485-1.1973 1.2031l-0.69922 1.1973h-14.902c-0.66377 0-1.1992 0.5335-1.1992 1.1973v19.205c0 0.66377 0.53545 1.1973 1.1992 1.1973h33.604c0.66377 0 1.1992-0.5335 1.1992-1.1973v-12.605-6.5996-2.3984c0-0.66521-0.53792-1.1992-1.2031-1.1992h-16.801z" fill="#bdbdbd" stroke-width="3.7796" style="paint-order:markers stroke fill"/>
 <rect x="3.228" y="7.249" width="1.905" height=".317" ry=".159" opacity=".25" style="paint-order:stroke markers fill"/>
 <path transform="scale(.26458)" d="m41.002 47.799-7.2012 7.2012h6.002c0.6646 0 1.1992-0.53657 1.1992-1.2012v-6z" fill="url(#c)" opacity=".1" stroke-width="2.2678" style="paint-order:stroke markers fill"/>
 <path d="m8.096 3.122c-0.176 0-0.236 0.161-0.317 0.317h-0.477a0.317 0.317 0 0 0-0.317 0.318v3.175c0 0.176 0.142 0.317 0.317 0.317h7.62a0.317 0.317 0 0 0 0.318-0.317v-3.175a0.317 0.317 0 0 0-0.318-0.318h-4.286c-0.093-0.149-0.141-0.317-0.317-0.317z" fill="#bdbdbd" style="paint-order:markers stroke fill"/>
 <path d="m8.096 3.122c-0.176 0-0.236 0.161-0.317 0.317h-0.477a0.317 0.317 0 0 0-0.317 0.318v3.175c0 0.176 0.142 0.317 0.317 0.317h7.62a0.317 0.317 0 0 0 0.318-0.317v-3.175a0.317 0.317 0 0 0-0.318-0.318h-4.286c-0.093-0.149-0.141-0.317-0.317-0.317z" opacity=".18" style="paint-order:markers stroke fill"/>
 <rect x="7.461" y="3.915" width="7.303" height="3.016" ry=".159" fill="#fff" style="paint-order:markers stroke fill"/>
 <path transform="scale(.26458)" d="m11.604 26.797c-0.66899 0-0.89502 0.61351-1.2012 1.2031h-1.8047a1.1981 1.1981 0 0 0-1.1973 1.1973v4.2031h-1.2012c-0.66377 0-1.1992 0.5335-1.1992 1.1973v19.205c0 0.66377 0.53545 1.1973 1.1992 1.1973h33.604c0.66377 0 1.1992-0.5335 1.1992-1.1973v-12.605-6.5996-2.3984c0-0.66521-0.53792-1.1992-1.2031-1.1992h-1.1973v-1.8027a1.1981 1.1981 0 0 0-1.2031-1.1973h-16.195c-0.3515-0.56694-0.53206-1.2031-1.1973-1.2031h-8.4023z" fill="#ffffff" opacity=".35" stroke-width="3.7796" style="paint-order:markers stroke fill"/>
 <path transform="scale(.26458)" d="m42.002 16v0.001953c-0.66521 0-0.86479 0.6285-1.2012 1.1992l-0.69922 1.1973h-14.902c-0.66377 0-1.1992 0.53545-1.1992 1.1992v19.203c0 0.66377 0.53545 1.1992 1.1992 1.1992h33.604c0.66377 0 1.1992-0.53545 1.1992-1.1992v-12.598-6.6055-2.4004c0-0.66143-0.53792-1.1973-1.2031-1.1973h-16.797z" fill="#bdbdbd" stroke-width="3.7796" style="paint-order:markers stroke fill"/>
 <rect x="8.255" y="3.28" width="1.905" height=".317" ry=".159" opacity=".25" style="paint-order:stroke markers fill"/>
 <path transform="scale(.26458)" d="m60 32.797-7.2012 7.2012h6.002c0.6646 0 1.1992-0.53657 1.1992-1.2012v-6z" fill="url(#d)" opacity=".1" stroke-width="2.2678" style="paint-order:stroke markers fill"/>
</svg>

<svg width="64" height="64" viewBox="0 0 16.933 16.933" xmlns="http://www.w3.org/2000/svg" xmlns:xlink="http://www.w3.org/1999/xlink"><defs><linearGradient id="a"><stop offset="0"/><stop stop-opacity="0" offset="1"/></linearGradient><linearGradient id="b" x1="-197.1" x2="-196.91" y1="217.68" y2="219.36" gradientTransform="rotate(-45 -738.924 -311.454) scale(2.2677)" gradientUnits="userSpaceOnUse" xlink:href="#a"/><linearGradient id="c" x1="-197.1" x2="-196.91" y1="217.68" y2="219.36" gradientTransform="rotate(-45 -747.544 -341.891) scale(2.2677)" gradientUnits="userSpaceOnUse" xlink:href="#a"/></defs><path d="M3.07 7.09c-.177 0-.237.162-.318.318h-.477a.317.317 0 0 0-.317.317V10.9c0 .176.142.318.317.318h7.62a.317.317 0 0 0 .318-.318V7.725a.317.317 0 0 0-.318-.317H5.61c-.093-.15-.141-.318-.317-.318z" fill="#bdbdbd" style="paint-order:markers stroke fill"/><path d="M3.07 7.09c-.177 0-.237.162-.318.318h-.477a.317.317 0 0 0-.317.317V10.9c0 .176.142.318.317.318h7.62a.317.317 0 0 0 .318-.318V7.725a.317.317 0 0 0-.318-.317H5.61c-.093-.15-.141-.318-.317-.318z" opacity=".18" style="paint-order:markers stroke fill"/><rect x="2.434" y="7.884" width="7.303" height="3.016" ry=".159" fill="#f2f2f2" style="paint-order:markers stroke fill"/><path transform="scale(.26458)" d="M22.998 31c-.661 0-.86.625-1.197 1.203l-.7 1.197H6.2c-.664 0-1.2.534-1.2 1.198v19.205C5 54.466 5.536 55 6.2 55h33.603c.664 0 1.2-.534 1.2-1.197V32.2c0-.666-.538-1.2-1.203-1.2H22.999z" fill="#bdbdbd" style="paint-order:markers stroke fill"/><rect x="3.228" y="7.249" width="1.905" height=".317" ry=".159" opacity=".25" style="paint-order:stroke markers fill"/><path transform="scale(.26458)" d="M41.002 47.799 33.801 55h6.002c.664 0 1.199-.536 1.199-1.201v-6z" fill="url(#b)" opacity=".1" style="paint-order:stroke markers fill"/><path d="M8.096 3.122c-.176 0-.236.161-.317.317h-.477a.317.317 0 0 0-.317.318v3.175c0 .176.142.317.317.317h7.62a.317.317 0 0 0 .318-.317V3.757a.317.317 0 0 0-.318-.318h-4.286c-.093-.149-.141-.317-.317-.317z" fill="#bdbdbd" style="paint-order:markers stroke fill"/><path d="M8.096 3.122c-.176 0-.236.161-.317.317h-.477a.317.317 0 0 0-.317.318v3.175c0 .176.142.317.317.317h7.62a.317.317 0 0 0 .318-.317V3.757a.317.317 0 0 0-.318-.318h-4.286c-.093-.149-.141-.317-.317-.317z" opacity=".18" style="paint-order:markers stroke fill"/><rect x="7.461" y="3.915" width="7.303" height="3.016" ry=".159" fill="#fff" style="paint-order:markers stroke fill"/><path transform="scale(.26458)" d="M11.604 26.797c-.669 0-.895.614-1.201 1.203H8.598a1.198 1.198 0 0 0-1.197 1.197V33.4H6.2c-.664 0-1.2.534-1.2 1.198v19.205C5 54.467 5.536 55 6.2 55h33.604c.663 0 1.199-.533 1.199-1.197V32.2A1.2 1.2 0 0 0 39.8 31h-1.198v-1.802A1.198 1.198 0 0 0 37.4 28H21.204c-.351-.567-.532-1.204-1.197-1.204h-8.402z" fill="#fff" opacity=".35" style="paint-order:markers stroke fill"/><path transform="scale(.26458)" d="M42.002 16v.002c-.665 0-.865.628-1.201 1.2l-.7 1.196H25.2c-.664 0-1.2.536-1.2 1.2V38.8c0 .663.536 1.199 1.2 1.199h33.604c.663 0 1.199-.536 1.199-1.2V17.198A1.2 1.2 0 0 0 58.8 16H42.003z" fill="#bdbdbd" style="paint-order:markers stroke fill"/><rect x="8.255" y="3.28" width="1.905" height=".317" ry=".159" opacity=".25" style="paint-order:stroke markers fill"/><path transform="scale(.26458)" d="m60 32.797-7.201 7.201H58.8c.664 0 1.199-.536 1.199-1.201v-6z" fill="url(#c)" opacity=".1" style="paint-order:stroke markers fill"/></svg>
